assets/img/braze_icons/reflect-02.svg

<svg fill="none" height="24" viewBox="0 0 24 24" width="24" xmlns="http://www.w3.org/2000/svg"><g fill="#801ed7"><path d="m13 3c0-.55228-.4477-1-1-1s-1 .44772-1 1v3c0 .55228.4477 1 1 1s1-.44772 1-1z"/><path d="m20.2071 7.29289c.3905.39053.3905 1.02369 0 1.41422l-2.2929 2.29289h4.0858c.5523 0 1 .4477 1 1s-.4477 1-1 1h-4.0858l2.2929 2.2929c.3905.3905.3905 1.0237 0 1.4142s-1.0237.3905-1.4142 0l-4-4c-.3905-.3905-.3905-1.0237 0-1.4142l4-4.00001c.3905-.39052 1.0237-.39052 1.4142 0z"/><path d="m2 11c-.55228 0-1 .4477-1 1s.44772 1 1 1h4.08579l-2.2929 2.2929c-.39052.3905-.39052 1.0237 0 1.4142.39053.3905 1.02369.3905 1.41422 0l4-4c.39052-.3905.39052-1.0237 0-1.4142l-4-4.00001c-.39053-.39052-1.02369-.39052-1.41422 0-.39052.39053-.39052 1.02369 0 1.41422l2.2929 2.29289z"/><path d="m12 9.5c.5523 0 1 .44772 1 1v3c0 .5523-.4477 1-1 1s-1-.4477-1-1v-3c0-.55228.4477-1 1-1z"/><path d="m13 18c0-.5523-.4477-1-1-1s-1 .4477-1 1v3c0 .5523.4477 1 1 1s1-.4477 1-1z"/></g></svg>

<svg width="24" height="24" viewBox="0 0 24 24" fill="none" xmlns="http://www.w3.org/2000/svg">
<path d="M13 3C13 2.44772 12.5523 2 12 2C11.4477 2 11 2.44772 11 3V6C11 6.55228 11.4477 7 12 7C12.5523 7 13 6.55228 13 6V3Z" fill="#801ED7"/>
<path d="M20.2071 7.29289C20.5976 7.68342 20.5976 8.31658 20.2071 8.70711L17.9142 11L22 11C22.5523 11 23 11.4477 23 12C23 12.5523 22.5523 13 22 13L17.9142 13L20.2071 15.2929C20.5976 15.6834 20.5976 16.3166 20.2071 16.7071C19.8166 17.0976 19.1834 17.0976 18.7929 16.7071L14.7929 12.7071C14.4024 12.3166 14.4024 11.6834 14.7929 11.2929L18.7929 7.29289C19.1834 6.90237 19.8166 6.90237 20.2071 7.29289Z" fill="#801ED7"/>
<path d="M2 11C1.44772 11 1 11.4477 1 12C1 12.5523 1.44772 13 2 13H6.08579L3.79289 15.2929C3.40237 15.6834 3.40237 16.3166 3.79289 16.7071C4.18342 17.0976 4.81658 17.0976 5.20711 16.7071L9.20711 12.7071C9.59763 12.3166 9.59763 11.6834 9.20711 11.2929L5.20711 7.29289C4.81658 6.90237 4.18342 6.90237 3.79289 7.29289C3.40237 7.68342 3.40237 8.31658 3.79289 8.70711L6.08579 11H2Z" fill="#801ED7"/>
<path d="M12 9.5C12.5523 9.5 13 9.94772 13 10.5V13.5C13 14.0523 12.5523 14.5 12 14.5C11.4477 14.5 11 14.0523 11 13.5V10.5C11 9.94772 11.4477 9.5 12 9.5Z" fill="#801ED7"/>
<path d="M13 18C13 17.4477 12.5523 17 12 17C11.4477 17 11 17.4477 11 18V21C11 21.5523 11.4477 22 12 22C12.5523 22 13 21.5523 13 21V18Z" fill="#801ED7"/>
</svg>
